X: 7504
T: Coast Of Austria, The
R: reel
M: 4/4
K: Amajor
|:ce ~e2 fece|ef ~f2 ecBA|ce ~e2 fece|faag a3 c'-|
c'bac' bafa|f2 fe fgaf|ecea f2 af|ecBc A2 AB:|
|:c3 c BAFA|ECEF A2 AB|ce ~e2 fece|faag a3 c'-|
c'bac' bafa|f2 fe fgaf|ecea f2 af|ecBc A2 AB:|

